SVG_Azure_All/O365 - SharePoint.svg

<?xml version="1.0" encoding="UTF-8" standalone="no"?>
<!-- Generated by Microsoft Visio, SVG Export O365 - SharePoint.svg Page-1 -->

<svg
   xmlns:dc="http://purl.org/dc/elements/1.1/"
   xmlns:cc="http://creativecommons.org/ns#"
   xmlns:rdf="http://www.w3.org/1999/02/22-rdf-syntax-ns#"
   xmlns:svg="http://www.w3.org/2000/svg"
   xmlns="http://www.w3.org/2000/svg"
   xmlns:sodipodi="http://sodipodi.sourceforge.net/DTD/sodipodi-0.dtd"
   xmlns:inkscape="http://www.inkscape.org/namespaces/inkscape"
   width="0.78740221in"
   height="0.78740209in"
   viewBox="0 0 56.692913 56.692699"
   xml:space="preserve"
   class="st9"
   version="1.1"
   id="svg64"
   sodipodi:docname="O365 - SharePoint.svg"
   style="font-size:12px;overflow:visible;color-interpolation-filters:sRGB;fill:none;fill-rule:evenodd;stroke-linecap:square;stroke-miterlimit:3"
   inkscape:version="0.92.5 (2060ec1f9f, 2020-04-08)"><metadata
   id="metadata70"><rdf:RDF><cc:Work
       rdf:about=""><dc:format>image/svg+xml</dc:format><dc:type
         rdf:resource="http://purl.org/dc/dcmitype/StillImage" /></cc:Work></rdf:RDF></metadata><defs
   id="defs68" /><sodipodi:namedview
   pagecolor="#ffffff"
   bordercolor="#666666"
   borderopacity="1"
   objecttolerance="10"
   gridtolerance="10"
   guidetolerance="10"
   inkscape:pageopacity="0"
   inkscape:pageshadow="2"
   inkscape:window-width="640"
   inkscape:window-height="480"
   id="namedview66"
   showgrid="false"
   inkscape:zoom="1.6252476"
   inkscape:cx="37.795252"
   inkscape:cy="27.250028"
   inkscape:window-x="0"
   inkscape:window-y="0"
   inkscape:window-maximized="0"
   inkscape:current-layer="svg64" />
	<style
   type="text/css"
   id="style2">
	<![CDATA[
		.st1 {fill:#036c70;stroke:none;stroke-linecap:butt;stroke-width:18.1976}
		.st2 {fill:#1a9ba1;stroke:none;stroke-linecap:butt;stroke-width:18.1976}
		.st3 {fill:#37c6d0;stroke:none;stroke-linecap:butt;stroke-width:18.1976}
		.st4 {fill:#000000;fill-opacity:0.098;stroke:none;stroke-linecap:butt;stroke-width:18.1976}
		.st5 {fill:#000000;fill-opacity:0.2;stroke:none;stroke-linecap:butt;stroke-width:18.1976}
		.st6 {fill:#03787c;stroke:none;stroke-linecap:butt;stroke-width:18.1976}
		.st7 {fill:#ffffff;stroke:none;stroke-linecap:butt;stroke-width:18.1976}
		.st8 {fill:none;stroke:none;stroke-linecap:butt;stroke-width:18.1976}
		.st9 {fill:none;fill-rule:evenodd;font-size:12px;overflow:visible;stroke-linecap:square;stroke-miterlimit:3}
	]]>
	</style>

	<g
   id="g62"
   transform="translate(-18.197585,-18.197799)">
		<title
   id="title4">Page-1</title>
		<g
   id="group2482-1"
   transform="translate(18.1976,-34.0157)">
			<title
   id="title6">O365 - SharePoint</title>
			<g
   id="group2483-2">
				<title
   id="title8">g22</title>
				<g
   id="shape2484-3"
   transform="translate(9.74409,-23.0315)">
					<title
   id="title10">circle2</title>
					<circle
   cx="16.8307"
   cy="92.0755"
   class="st1"
   id="ellipse12"
   r="16.8307"
   style="fill:#036c70;stroke:none;stroke-width:18.19759941;stroke-linecap:butt" />
				</g>
				<g
   id="shape2485-5"
   transform="translate(27.9035,-10.6299)">
					<title
   id="title15">circle4</title>
					<circle
   cx="14.3947"
   cy="94.511497"
   class="st2"
   id="ellipse17"
   r="14.3947"
   style="fill:#1a9ba1;stroke:none;stroke-width:18.19759941;stroke-linecap:butt" />
				</g>
				<g
   id="shape2486-7"
   transform="translate(16.8307)">
					<title
   id="title20">circle6</title>
					<circle
   cx="11.5157"
   cy="97.390503"
   class="st3"
   id="ellipse22"
   r="11.5157"
   style="fill:#37c6d0;stroke:none;stroke-width:18.19759941;stroke-linecap:butt" />
				</g>
				<g
   id="shape2487-9"
   transform="translate(10.3341,-10.6299)">
					<title
   id="title25">path8</title>
					<path
   d="M 19.19,75.24 H 0 A 16.8413,16.8413 -180 0 0 16.24,96.5 c 0.49,0 0.98,-0.02 1.46,-0.06 l 0.01,0.07 A 11.5157,11.5157 -180 0 0 6.5,108.02 c 0,0.3 0.01,0.59 0.03,0.89 h 12.66 a 2.3687,2.3687 -180 0 0 2.37,-2.37 V 77.61 a 2.3687,2.3687 -180 0 0 -2.37,-2.37 z"
   class="st4"
   id="path27"
   inkscape:connector-curvature="0"
   style="fill:#000000;fill-opacity:0.09800002;stroke:none;stroke-width:18.19759941;stroke-linecap:butt" />
				</g>
				<g
   id="shape2488-11"
   transform="translate(9.95138,-8.85827)">
					<title
   id="title30">path10</title>
					<path
   d="M 17.81,75.24 H 0 a 16.8396,16.8396 -180 0 0 16.62,19.49 c 0.49,0 0.98,-0.02 1.46,-0.06 l 0.01,0.07 a 11.5246,11.5246 -180 0 0 -10.9,14.17 h 10.62 a 2.3687,2.3687 -180 0 0 2.36,-2.37 V 77.61 a 2.3687,2.3687 -180 0 0 -2.36,-2.37 z"
   class="st5"
   id="path32"
   inkscape:connector-curvature="0"
   style="fill:#000000;fill-opacity:0.2;stroke:none;stroke-width:18.19759941;stroke-linecap:butt" />
				</g>
				<g
   id="shape2489-13"
   transform="translate(9.95138,-12.4016)">
					<title
   id="title35">path12</title>
					<path
   d="M 17.81,78.79 H 0 a 16.8396,16.8396 -180 0 0 16.62,19.49 c 0.49,0 0.98,-0.03 1.46,-0.07 l 0.01,0.07 A 11.5157,11.5157 -180 0 0 6.91,108.91 h 10.9 a 2.3687,2.3687 -180 0 0 2.36,-2.37 V 81.15 a 2.3687,2.3687 -180 0 0 -2.36,-2.36 z"
   class="st5"
   id="path37"
   inkscape:connector-curvature="0"
   style="fill:#000000;fill-opacity:0.2;stroke:none;stroke-width:18.19759941;stroke-linecap:butt" />
				</g>
				<g
   id="shape2490-15"
   transform="translate(9.95138,-12.4016)">
					<title
   id="title40">path14</title>
					<path
   d="M 16.03,78.79 H 0 a 16.8396,16.8396 -180 0 0 16.62,19.49 c 0.49,0 0.98,-0.03 1.46,-0.07 l 0.01,0.07 A 11.5157,11.5157 -180 0 0 6.91,108.91 h 9.12 a 2.3687,2.3687 -180 0 0 2.37,-2.37 V 81.15 a 2.3687,2.3687 -180 0 0 -2.37,-2.36 z"
   class="st5"
   id="path42"
   inkscape:connector-curvature="0"
   style="fill:#000000;fill-opacity:0.2;stroke:none;stroke-width:18.19759941;stroke-linecap:butt" />
				</g>
				<g
   id="shape2491-17"
   transform="translate(0,-14.1732)">
					<title
   id="title45">path16</title>
					<path
   d="m 2.36,80.56 h 23.62 a 2.36161,2.36161 0 0 1 2.37,2.36 v 23.62 a 2.36161,2.36161 0 0 1 -2.37,2.37 H 2.36 A 2.36161,2.36161 0 0 1 0,106.54 V 82.92 a 2.36161,2.36161 0 0 1 2.36,-2.36 z"
   class="st6"
   id="path47"
   inkscape:connector-curvature="0"
   style="fill:#03787c;stroke:none;stroke-width:18.19759941;stroke-linecap:butt" />
				</g>
				<g
   id="shape2492-19"
   transform="translate(8.08051,-19.4882)">
					<title
   id="title50">path18</title>
					<path
   d="M 1.96,99.74 A 4.68602,4.68602 0 0 1 0.51,98.2 4.18287,4.18287 0 0 1 0,96.09 4.05709,4.05709 0 0 1 0.94,93.36 5.56654,5.56654 0 0 1 3.45,91.72 10.598,10.598 0 0 1 6.88,91.19 13.0287,13.0287 0 0 1 11.4,91.82 v 3.19 a 7.06181,7.06181 -180 0 0 -2.05,-0.83 9.91417,9.91417 -180 0 0 -2.39,-0.29 5.18386,5.18386 -180 0 0 -2.45,0.52 1.6122,1.6122 -180 0 0 -0.97,1.47 1.49528,1.49528 -180 0 0 0.41,1.05 3.75945,3.75945 -180 0 0 1.11,0.79 c 0.47,0.24 1.16,0.54 2.08,0.92 a 2.18268,2.18268 0 0 1 0.3,0.12 17.1797,17.1797 0 0 1 2.63,1.3 4.70197,4.70197 0 0 1 1.55,1.56 4.53189,4.53189 0 0 1 0.57,2.36 4.3937,4.3937 0 0 1 -0.89,2.85 4.94114,4.94114 0 0 1 -2.36,1.59 10.7167,10.7167 0 0 1 -3.37,0.49 17.7661,17.7661 0 0 1 -3.05,-0.26 10.474,10.474 0 0 1 -2.48,-0.71 v -3.37 a 7.97244,7.97244 -180 0 0 2.5,1.2 9.76713,9.76713 -180 0 0 2.76,0.44 4.74803,4.74803 -180 0 0 2.51,-0.53 1.67776,1.67776 -180 0 0 0.84,-1.5 1.60157,1.60157 -180 0 0 -0.47,-1.15 4.79055,4.79055 -180 0 0 -1.3,-0.91 C 6.32,101.84 5.5,101.48 4.42,101.02 A 13.9252,13.9252 0 0 1 1.96,99.74 Z"
   class="st7"
   id="path52"
   inkscape:connector-curvature="0"
   style="fill:#ffffff;stroke:none;stroke-width:18.19759941;stroke-linecap:butt" />
				</g>
				<g
   id="shape2493-21">
					<title
   id="title55">path20</title>
					<rect
   x="0"
   y="52.213299"
   width="56.692902"
   height="56.692902"
   class="st8"
   id="rect57"
   style="fill:none;stroke:none;stroke-width:18.19759941;stroke-linecap:butt" />
				</g>
			</g>
		</g>
	</g>
</svg>

<?xml version="1.0" encoding="UTF-8" standalone="no"?>
<!DOCTYPE svg PUBLIC "-//W3C//DTD SVG 1.1//EN" "http://www.w3.org/Graphics/SVG/1.1/DTD/svg11.dtd">
<!-- Generated by Microsoft Visio, SVG Export O365 - SharePoint.svg Page-1 -->
<svg xmlns="http://www.w3.org/2000/svg" xmlns:xlink="http://www.w3.org/1999/xlink" xmlns:ev="http://www.w3.org/2001/xml-events"
		width="1.29289in" height="1.51259in" viewBox="0 0 93.088 108.906" xml:space="preserve" color-interpolation-filters="sRGB"
		class="st9">
	<style type="text/css">
	<![CDATA[
		.st1 {fill:#036c70;stroke:none;stroke-linecap:butt;stroke-width:18.1976}
		.st2 {fill:#1a9ba1;stroke:none;stroke-linecap:butt;stroke-width:18.1976}
		.st3 {fill:#37c6d0;stroke:none;stroke-linecap:butt;stroke-width:18.1976}
		.st4 {fill:#000000;fill-opacity:0.098;stroke:none;stroke-linecap:butt;stroke-width:18.1976}
		.st5 {fill:#000000;fill-opacity:0.2;stroke:none;stroke-linecap:butt;stroke-width:18.1976}
		.st6 {fill:#03787c;stroke:none;stroke-linecap:butt;stroke-width:18.1976}
		.st7 {fill:#ffffff;stroke:none;stroke-linecap:butt;stroke-width:18.1976}
		.st8 {fill:none;stroke:none;stroke-linecap:butt;stroke-width:18.1976}
		.st9 {fill:none;fill-rule:evenodd;font-size:12px;overflow:visible;stroke-linecap:square;stroke-miterlimit:3}
	]]>
	</style>

	<g>
		<title>Page-1</title>
		<g id="group2456-1" transform="translate(18.1976,-34.0157)">
			<title>O365 - SharePoint</title>
			<g id="group2457-2">
				<title>g22</title>
				<g id="shape2458-3" transform="translate(9.74409,-23.0315)">
					<title>circle2</title>
					<ellipse cx="16.8307" cy="92.0755" rx="16.8307" ry="16.8307" class="st1"/>
				</g>
				<g id="shape2459-5" transform="translate(27.9035,-10.6299)">
					<title>circle4</title>
					<ellipse cx="14.3947" cy="94.5115" rx="14.3947" ry="14.3947" class="st2"/>
				</g>
				<g id="shape2460-7" transform="translate(16.8307,0)">
					<title>circle6</title>
					<ellipse cx="11.5157" cy="97.3905" rx="11.5157" ry="11.5157" class="st3"/>
				</g>
				<g id="shape2461-9" transform="translate(10.3341,-10.6299)">
					<title>path8</title>
					<path d="M19.19 75.24 L0 75.24 A16.8413 16.8413 -180 0 0 16.24 96.5 C16.73 96.5 17.22 96.48 17.7 96.44 L17.71
								 96.51 A11.5157 11.5157 -180 0 0 6.5 108.02 C6.5 108.32 6.51 108.61 6.53 108.91 L19.19 108.91 A2.3687
								 2.3687 -180 0 0 21.56 106.54 L21.56 77.61 A2.3687 2.3687 -180 0 0 19.19 75.24 Z" class="st4"/>
				</g>
				<g id="shape2462-11" transform="translate(9.95138,-8.85827)">
					<title>path10</title>
					<path d="M17.81 75.24 L0 75.24 A16.8396 16.8396 -180 0 0 16.62 94.73 C17.11 94.73 17.6 94.71 18.08 94.67 L18.09
								 94.74 A11.5246 11.5246 -180 0 0 7.19 108.91 L17.81 108.91 A2.3687 2.3687 -180 0 0 20.17 106.54 L20.17
								 77.61 A2.3687 2.3687 -180 0 0 17.81 75.24 Z" class="st5"/>
				</g>
				<g id="shape2463-13" transform="translate(9.95138,-12.4016)">
					<title>path12</title>
					<path d="M17.81 78.79 L0 78.79 A16.8396 16.8396 -180 0 0 16.62 98.28 C17.11 98.28 17.6 98.25 18.08 98.21 L18.09
								 98.28 A11.5157 11.5157 -180 0 0 6.91 108.91 L17.81 108.91 A2.3687 2.3687 -180 0 0 20.17 106.54 L20.17
								 81.15 A2.3687 2.3687 -180 0 0 17.81 78.79 Z" class="st5"/>
				</g>
				<g id="shape2464-15" transform="translate(9.95138,-12.4016)">
					<title>path14</title>
					<path d="M16.03 78.79 L0 78.79 A16.8396 16.8396 -180 0 0 16.62 98.28 C17.11 98.28 17.6 98.25 18.08 98.21 L18.09
								 98.28 A11.5157 11.5157 -180 0 0 6.91 108.91 L16.03 108.91 A2.3687 2.3687 -180 0 0 18.4 106.54 L18.4
								 81.15 A2.3687 2.3687 -180 0 0 16.03 78.79 Z" class="st5"/>
				</g>
				<g id="shape2465-17" transform="translate(0,-14.1732)">
					<title>path16</title>
					<path d="M2.36 80.56 L25.98 80.56 A2.36161 2.36161 0 0 1 28.35 82.92 L28.35 106.54 A2.36161 2.36161 0 0 1 25.98
								 108.91 L2.36 108.91 A2.36161 2.36161 0 0 1 0 106.54 L0 82.92 A2.36161 2.36161 0 0 1 2.36 80.56 Z"
							class="st6"/>
				</g>
				<g id="shape2466-19" transform="translate(8.08051,-19.4882)">
					<title>path18</title>
					<path d="M1.96 99.74 A4.68602 4.68602 0 0 1 0.51 98.2 A4.18287 4.18287 0 0 1 -0 96.09 A4.05709 4.05709 0 0 1
								 0.94 93.36 A5.56654 5.56654 0 0 1 3.45 91.72 A10.598 10.598 0 0 1 6.88 91.19 A13.0287 13.0287 0
								 0 1 11.4 91.82 L11.4 95.01 A7.06181 7.06181 -180 0 0 9.35 94.18 A9.91417 9.91417 -180 0 0 6.96 93.89
								 A5.18386 5.18386 -180 0 0 4.51 94.41 A1.6122 1.6122 -180 0 0 3.54 95.88 A1.49528 1.49528 -180 0
								 0 3.95 96.93 A3.75945 3.75945 -180 0 0 5.06 97.72 C5.53 97.96 6.22 98.26 7.14 98.64 A2.18268 2.18268
								 0 0 1 7.44 98.76 A17.1797 17.1797 0 0 1 10.07 100.06 A4.70197 4.70197 0 0 1 11.62 101.62 A4.53189
								 4.53189 0 0 1 12.19 103.98 A4.3937 4.3937 0 0 1 11.3 106.83 A4.94114 4.94114 0 0 1 8.94 108.42 A10.7167
								 10.7167 0 0 1 5.57 108.91 A17.7661 17.7661 0 0 1 2.52 108.65 A10.474 10.474 0 0 1 0.04 107.94 L0.04
								 104.57 A7.97244 7.97244 -180 0 0 2.54 105.77 A9.76713 9.76713 -180 0 0 5.3 106.21 A4.74803 4.74803
								 -180 0 0 7.81 105.68 A1.67776 1.67776 -180 0 0 8.65 104.18 A1.60157 1.60157 -180 0 0 8.18 103.03
								 A4.79055 4.79055 -180 0 0 6.88 102.12 C6.32 101.84 5.5 101.48 4.42 101.02 A13.9252 13.9252 0 0 1
								 1.96 99.74 Z" class="st7"/>
				</g>
				<g id="shape2467-21">
					<title>path20</title>
					<rect x="0" y="52.2133" width="56.6929" height="56.6929" class="st8"/>
				</g>
			</g>
		</g>
	</g>
</svg>
